X: 21781
M: C
L: 1/8
K: C
cBcG EG ce | dcBA G2f2 | ecgc acgc | dcBA G2ed |\
cBcG EG ce | dcBA G2f2 | egec dfdB | c2c2c2 :|
|: (ef) |\
gege c2fg | afaf d2ef | gege afge | dcBA G2ed |\
cBcG EGce | dcBA G2f2 | egec dfdB | c2c2c2 :|


